X: 130
T: Sullivan's
M: 2/4
L: 1/8
R: polka
K:Gmaj
"G"dG Bc |"D" d2 d>e |"D7" fd cA |"Am"AB ce |
"G"dG Bc | "D"d2 d>e |"D7" fd cA |"G" AG G2 :|
"G"dg ga | b2 a>g |"D" fd de | fg af |
"G"dg ga | b2 a>g |"D7" fd cA |"G" AG G2 :|


